X:297
T:Midnight Storm
C:Shawn Lane ("Midnight Storm" Blue Highway)
N:Transcribed by Steve Keating
R:bluegrass
L:1/8
Q:1/4=200
M:4/4
K:A
z8 | z2 [AE][AE] [A2=G2] [A2^G2] | {G}"A"A2 A[AA] [AA][AA] [AA][AA] | =c^c A2 =c^c d2 | 
=c^c A2 =GA AA | =c^c A2 z^d [=ge][ge] | [=g4e4] zg ed | "E"=c^c A2 EE =GA | "A"A2 A2 EF =GA | 
Bd =c^c AE =G^G | A2 A2 [A2E2A,2] [AEA,][AEA,] | [=c2E2] [A2E2] [c2E2] [d2E2] | 
[=c2E2A,2] [A2E2A,2] c^c A2 | =GA AA Ad [=ge][ge] | [=g4e4] z{=c'}^c' ^d=d | "E"d2 =c^c AE =G^G | 
"A"A4 EE {G}AA | A,8 | 


